X: 1
T: British Field Marshall at New Orleans
R: reel, march
Z: 2009 John Chambers <jc:trillian.mit.edu>
S: handwritten MS of unknown origin in folder labelled "Philly tunes"
M: 2/4
L: 1/16
K: Em
|: EFGE FGAF | JD3E GFE2 | JD3E GFED | B,DEF E4   \
|  EFGE FGAF | JD3E GFE2 | ~B3A GFED | B,DEF E4  :|
|: EFGA B2e2 | dedB AGED | EFGA B2e2 | ded2- d2B2 \
|  EFGA B2e2 | dedB AGED | ~B3A GFED | B,DEF E4  :|
